X:1
T:Feuilles mortes
T:Feuilles mortes
T:(Dead Leaves) No 2 from Préludes Book 2 
T:Claude Debussy (1862-1918) 
C:Claude Debussy (1862-1918)
%%score { ( 1 5 6 ) | ( 2 3 ) | ( 4 7 8 ) }
L:1/8
Q:1/4=52
M:3/4
K:E
V:1 treble nm="Grand Piano" snm="Pno."
V:5 treble 
V:6 treble 
V:2 bass 
V:3 bass 
V:4 bass 
V:7 bass 
V:8 bass 
V:1
"^Lent et mélancolique"!pp! ([E^Acf]6 | e3!<(! [Cc][=D=d][Bb])!<)! |!p!!>(! (f4!>)!!pp! c2-) | %3
 (c^A =G/^G/=A =FC |[M:2/4] =D/^D/E =CA,) | %5
[M:3/4][K:bass] z (.!tenuto![=G,B,CE]2 .[F,B,CD] .[F,B,CD]2-) | %6
 ([F,B,CD]!<(![=F,_B,=C=D]/[^F,=B,^C^D]/-)!<)!!p!!>(! [F,B,CD]4!>)! | %7
[K:treble]!pp! z (!tenuto![Bcdg]2 [FGAd][ABcf][EFGc] |!>(! [=GAce]4!>)!!ppp! [=DEFB]2) | z6 | z6 | %11
[M:2/4] z!pp! (.b.e.B) | z!pp! (.b.e.B) | z (.b.e.B) |[M:3/4]!p! (!tenuto!E3!p! C=DB | F4!p! C2-) | %16
[K:bass] C^A, =G,/^G,/=A,!>(! =F,C, |[M:2/4] x2!>)!!pp! x2 | %18
[Q:1/4=60]"^Un peu plus allant et plus gravement expressif" x4 | x4 |!p! (!>!!tenuto!E4- | %21
 E2- E>!>!F) |!pp!!<(! (!>!F>G)!<)![K:treble]!p!!<(! (G>^A)!<)! | %23
!p!!<(! (^A>^B)!<)!!mp!!<(! (B>!<)!!mp!c) | %24
!ppp! (.[=Ace=a].[d=g^ad'].[fac'f'].[^Be!courtesy!=g^b]) | %25
 (.[=Ace=a].[d=g^ad'].[fac'f'].[^Be!courtesy!=g^b]) | %26
 (.[=Ace=a].[d=g^ad'].[fac'f'].[^Be!courtesy!=g^b]) | %27
 (.[=Ace=a].[d=g^ad'].[fac'f'].[^Be!courtesy!=g^b]) | (.[d=g^ad'].[^Beg^b])(.[dgad'].[Begb]) | %29
!<(! (.[d=g^ad'].[^Beg^b])(.[dgad'].[Begb])!<)! | %30
[K:bass]!p![Q:1/4=56]"^Plus lent" z2[K:treble]!ppp! [c'f'^a'c'']2- | [c'f'a'c''] z z2 | %32
!p! z2!ppp! [c'f'^a'c'']2- | [c'f'a'c''][K:bass] z z2 | x4 | x4 | %36
[K:treble]!p! (G2-!<(! G3/2!p!(3^B/4G/4B/4!<)! |!mp!!>(! ^e2- e3/2!p!(3^B/4e/4B/4)!>)! | %38
!p! (G2- G3/2!p!(3^B/4G/4B/4 | %39
[Q:1/4=55]"^Cédez - - - - - - - - - - - - - -"!>(! ^e3/2(3^^g/4e/4g/4[Q:1/4=53] ^b[Q:1/4=52]d')!>)![Q:1/4=54] | %40
[M:3/4][Q:1/4=52]"^Mouvt. (dans le sentiment du début)"!pp! ([f^ac'f']6 | %41
 [ee']3 [cc'][=d=d'][bb']) |!>(! ([ff']4 [c-c']2)!>)! |!pp! (c^A =G/^G/=A =FC | %44
[M:2/4] =D/^D/E =C[K:bass]A,- |!>(! A, E,2 =C,)!>)! |[M:3/4]!pp! x6 | %47
 z2[K:treble]!p!!>(! ([aa']3 [_a_a']!>)! |!pp!!>(! [_g_g'] [=f=f']3)!>)!!ppp! z2 | %49
!p! (!tenuto![^a^a']4!p!!>(! [gg']2 | [ff']2 [^e^e']4-)!>)! |!ppp! [ee']2 z2 z2 |] %52
V:2
 F6 | E3 x3 | (F4 C2-) | (C^A, =G,/^G,/=A, =F,C, |[M:2/4] =D,/^D,/E, =C,A,,) |[M:3/4] x3 x x2 | %6
 x x/ x/ x4 | z (!tenuto![B,CDG]2 [F,G,A,D][A,B,CF][E,F,G,C] | [=G,A,CE]4 [=D,E,F,B,]2) | %9
[K:treble]!p! ([=F=GA=d]4!<(! [^D^FB]!<)!!mp![EA=c]) |!p! ([=F=GA=d]4!<(! [^D^FB]!<)!!mp![EA=c]) | %11
[M:2/4]!p! !tenuto![=F=GAe]4 |!p! !tenuto![=GABe]4 |!pp! !tenuto![=F=GAe]4 | %14
[M:3/4][K:bass] [!courtesy!^C,,!courtesy!^G,,]6 | [!courtesy!^D,,^A,,]6 | x6 | %17
[M:2/4][I:staff -1] =D,/^D,/E, =C,[I:staff +1]G,,- | G,,4- | G,,4- | G,,4- | G,,4- | G,,4- | G,,4 | %24
[K:treble]!p! (!>!=G3 !>!=A | !>!=G!>!E/!>!F/ !>!G!>!=A) | (!>!E2 !>!=G2- | G2 !>!!tenuto!=G2-) | %28
 (G>!>!^A !>!=G2-) | (G>!>!^A) (!>!=G>!>!A) |!p! !tenuto![F^Ac]4- | %31
 [FAc]3/2!mf!!<(![I:staff -1](3([=Ace]/4[I:staff +1][F^Ac]/4[I:staff -1][=Ace]/4!<)!!f![I:staff +1] [=df=a]3/2)!>(![I:staff -1](3([Ace]/4[I:staff +1][F^Ac]/4[I:staff -1][=Ace]/4!>)! | %32
[I:staff +1][K:bass]!p! !tenuto![F,^A,C]4-) | %33
 [F,A,C]3/2!mf!!<(![I:staff -1](3([=A,CE]/4[I:staff +1][F,^A,C]/4[I:staff -1][=A,CE]/4!<)!!f![I:staff +1] [=DF=A]3/2)!>(![I:staff -1](3([A,CE]/4[I:staff +1][F,^A,C]/4[I:staff -1][=A,CE]/4!>)! | %34
!p![I:staff +1] [F,^A,C]4) | %35
"_molto dim."[I:staff -1] [=D,F,=A,]2- (3(.[D,F,A,][I:staff +1].[=F,_A,=C]!ppp![I:staff -1].[D,^F,=A,]) | %36
[I:staff +1] [^B,,^F,^A,]4 | [^B,,F,^^G,]4 | [^B,,F,^A,]4 | [^B,,F,^^G,]4 |[M:3/4] (F6 | E3 C=DB) | %42
 (F4 C2-) | (C^A, =G,/^G,/=A, =F,C, |[M:2/4] =D,/^D,/E, =C,A,,- | A,, E,,2 =C,,) |[M:3/4] z6 | %47
[K:treble] z2 [_B=d]4- | [Bd]4 z2 | !tenuto!c6 | [Cc]6- | [Cc]6 |] %52
V:3
 ([=G,^A,C]6 | [=F,^G,B,]6) | [=G,^A,C]6 | x6 |[M:2/4] x4 |[M:3/4] (([A,,A,]4- [A,,A,][A,,,A,,] | %6
 (([A,,A,]4)) !tenuto![A,A]2-)) | [A,A]6 | z2 [A,,,A,,]4 |[K:treble] x4 =G2 | x4 =G2 |[M:2/4] x4 | %12
 x4 | x4 |[M:3/4][K:bass] x6 | x6 | x6 |[M:2/4] x4 | x4 | x4 | x4 | x4 | x4 | x4 |[K:treble] x4 | %25
 x4 | x4 | x4 | x4 | x4 | x4 | x4 |[K:bass] x4 | x4 | x4 | x4 | x4 | x4 | x4 | x x x x | %40
[M:3/4] ([=G,^A,C]6 | [=F,^G,B,]6) | [=G,^A,C]6 | x6 |[M:2/4] x4 | x4 |[M:3/4] x6 | %47
[K:treble] x2 (A3 _A | _G =F3) x2 | (^A4 G2 | F2 ^E4-) | E2 z2 z2 |] %52
V:4
!ped! x6!ped-up! |!ped! z (.C,,,.C,,.G,,!ped-up!!ped! .C,2)!ped-up! |!ped! z (.D,,,.D,,.^A,,-) x2 | %3
 x!ped-up! x x4 |[M:2/4] x4 |[M:3/4]!ped! x6!ped-up!!ped! | x6!ped-up!!ped!!ped-up!!ped! | %7
 x6!ped-up!!ped!!ped-up!!ped!!ped-up!!ped!!ped-up!!ped!!ped-up! |!ped! x6!ped-up!!ped!!ped-up! | %9
!ped! ([=F,=G,A,=D]4!ped-up!!ped! [^D,^F,B,]!ped-up!!ped![E,A,=C])!ped-up! | %10
!ped! ([=F,=G,A,=D]4!ped-up!!ped! [^D,^F,B,]!ped-up!!ped![E,A,=C])!ped-up! | %11
[M:2/4]!ped! !tenuto![=F,=G,A,E]4!ped-up! |!ped! !tenuto![=G,A,B,E]4!ped-up! | %13
!ped! !tenuto![=D,=F,A,E]4!ped-up! |[M:3/4]!ped! z!pp! (.D.G,) z z2!ped-up! | %15
!ped! z!pp! (.C.F,.C,) z2 | x!ped-up! x x4 |[M:2/4] x4 | %18
!pp!!<(! (=D,,/^D,,/E,,!<)!!p!!>(! .=C,,.G,,,)!>)! | %19
!pp!!<(! (=D,,/^D,,/E,,!<)!!p!!>(! .=C,,.G,,,)!>)! | %20
!pp!!<(! (=D,,/^D,,/E,,!<)!!p!!>(! .=C,,.G,,,)!>)! | %21
!pp!!<(! (=D,,/^D,,/E,,!<)!!p!!>(! .=C,,.G,,,)!>)! |!pp! (=D,,/^D,,/E,, .=C,,.G,,,) | %23
 (=D,,/^D,,/E,, .=C,,!pp!.G,,,) |!ped! [^G,^A,CE]4!ped-up!!ped!!ped-up! | %25
!ped! [^G,^A,CE]4!ped-up!!ped!!ped-up! |!ped! [^G,^A,CE]4-!ped-up!!ped!!ped-up! | %27
!ped! [G,A,CE]4!ped-up!!ped!!ped-up! |!ped! [^G,^A,CE]4-!ped-up!!ped!!ped-up! | %29
!ped! [G,A,CE]4!ped-up!!ped!!ped-up! |!ped! z2!ppp! [F,,,C,,F,,]2- | [F,,,C,,F,,]!ped-up! z z2 | %32
!ped! z2!ppp! [F,,,C,,F,,]2- | [F,,,C,,F,,]!ped-up! z z2 |!ped! x4!ped-up! | x4 | %36
!ped! z2!pp! .G,,,2!ped-up! |!ped! z2!pp! .G,,,2!ped-up! |!ped! z2!pp! .G,,,2!ped-up! | %39
!ped! z2 .G,,,2!ped-up! |[M:3/4]!ped! z2!8vb(! C,,,2- C,,, z!ped-up! | %41
!ped! z2 C,,,2- C,,, z!ped-up! |!ped! z2 C,,,2- C,,,!8vb)! z | x!ped-up! x x4 |[M:2/4] x4 | x4 | %46
[M:3/4]!ped!!8vb(! (!tenuto!=D,,,3!ped-up!!ped! .=F,,,!ped-up!!ped!.D,,,!ped-up!!ped!.F,,,!ped-up! | %47
!ped! _B,,,6-) | B,,,4!8vb)!!ped-up! z2 |!ped! z2!ppp! [G,,C,]2- [G,,C,] z!ped-up! | %50
!ped! x2!ped-up!!ped! x2 x2 | x2!ped-up!!ped! x4!ped-up! |] %52
V:5
 x6 | [GB]6 | [E^Ac]6 | x6 |[M:2/4] x4 |[M:3/4][K:bass] x6 | x6 |[K:treble] x6 | x6 | x6 | x6 | %11
[M:2/4] x4 | x4 | x4 |[M:3/4] [=F,B,]6 | [=G,^A,C]6 |[K:bass] x6 |[M:2/4] x4 | x4 | x4 | %20
 !>![=D,E,G,=C]4- | [D,E,G,C]4 | [E,^A,=D]2[K:treble] [F,=CE]2 | [G,=DF]2 [^A,EG]2 | x4 | x4 | x4 | %27
 x4 | x4 | x4 |[K:bass] !tenuto![F,^A,C]4[K:treble] | x4 | !tenuto![^F^Ac]4- | [FAc][K:bass] x3 | %34
 x4 | x4 |[K:treble] (E4 | D4) | (E4 | D4) |[M:3/4] x6 | x6 | [^ac']6 | x6 |[M:2/4] x3[K:bass] x | %45
 x4 |[M:3/4] (!tenuto![A,,=D,F,A,]3 .[=C,=F,_A,=C].[A,,D,^F,=A,].[C,=F,_A,C] | %47
 [=F,_B,=D=F]6)[K:treble] | x6 | c'6- | c'6- | c'6 |] %52
V:6
 x6 | =D3 x3 | x6 | x6 |[M:2/4] x4 |[M:3/4][K:bass] x6 | x6 |[K:treble] x6 | x6 | x6 | x6 | %11
[M:2/4] x4 | x4 | x4 |[M:3/4] x6 | x6 |[K:bass] x6 |[M:2/4] x4 | x4 | x4 | x4 | x4 | %22
 x2[K:treble] x2 | x4 | x4 | x4 | x4 | x4 | x4 | x4 |[K:bass] x2[K:treble] x2 | x4 | x4 | %33
 x[K:bass] x3 | x4 | x4 |[K:treble] x4 | x4 | x4 | x4 |[M:3/4] x6 | x6 | x6 | x6 | %44
[M:2/4] x3[K:bass] x | x4 |[M:3/4] x6 | x2[K:treble] =d'4- | d'4 x2 | x6 | x6 | x6 |] %52
V:7
 x6 | x6 | x6 | x6 |[M:2/4] x4 |[M:3/4] x6 | x6 | x6 | x6 | x2 x2 =G,2 | x2 x2 =G,2 | %11
[M:2/4] z2 .[=G,,,=G,,]2 | z2 .[=G,,,=G,,]2 | z2 .[=G,,,=G,,]2 |[M:3/4] x6 | x6 | x6 |[M:2/4] x4 | %18
 x4 | x4 | x4 | x4 | x4 | x4 | z2!pp! .G,,,2 | x2 x2 | x2 x2 | .G,,,2 z2 | x2 x2 | .G,,,2 z2 | x4 | %31
 x4 | x4 | x4 | x4 | x4 | x4 | x4 | x4 | x4 |[M:3/4] x2!8vb(! x4 | x6 | x5!8vb)! x | x6 | %44
[M:2/4] x4 | x4 |[M:3/4]!8vb(! x6 | z _B,,,,- B,,,,4- | B,,,,4!8vb)! x2 | %49
 x2 [C,,,C,,]2- [C,,,C,,] z | x6 | x6 |] %52
V:8
 x6 | x6 | x6 | x6 |[M:2/4] x4 |[M:3/4] x6 | x6 | x6 | x6 | z2 [=G,,,=G,,]4 | z2 [=G,,,=G,,]4 | %11
[M:2/4] x4 | x4 | x4 |[M:3/4] x6 | x6 | x6 |[M:2/4] x4 | x4 | x4 | x4 | x4 | x4 | x4 | x4 | x4 | %26
 x4 | x4 | x4 | x4 | x4 | x4 | x4 | x4 | x4 | x4 | x4 | x4 | x4 | x4 |[M:3/4] x2!8vb(! x4 | x6 | %42
 x5!8vb)! x | x6 |[M:2/4] x4 | x4 |[M:3/4]!8vb(! x6 | x6 | x4!8vb)! x2 | x6 | x6 | x6 |] %52

